lib/brands/icons/redis.svg

<svg xmlns="http://www.w3.org/2000/svg" fill="none" aria-hidden="true" viewBox="0 0 48 48"><g id="redis-Icon"><g id="Group"><path id="Vector" fill="#912626" d="M40.5895 32.3062C38.6683 33.3076 28.716 37.3996 26.5971 38.5041C24.4784 39.6089 23.3014 39.5982 21.6276 38.798C19.9538 37.9979 9.36273 33.7198 7.45495 32.8079C6.50134 32.3522 6 31.9675 6 31.6041V27.9654C6 27.9654 19.7881 24.9636 22.0142 24.1651C24.2401 23.3665 25.0124 23.3377 26.9067 24.0315C28.8011 24.7255 40.1278 26.7692 42 27.4549C42 27.4549 41.9992 30.7048 41.9992 31.0422C41.9994 31.4019 41.5674 31.7965 40.5895 32.3062Z"/><path id="Vector_2" fill="#C6302B" d="M40.5888 28.6888C38.6677 29.6898 28.7157 33.782 26.5969 34.8865C24.4783 35.9913 23.3012 35.9805 21.6275 35.1804C19.9537 34.3808 9.36307 30.102 7.45535 29.1906C5.54763 28.2786 5.50755 27.651 7.38166 26.9172C9.25563 26.1832 19.7881 22.0509 22.0144 21.2523C24.2402 20.454 25.0124 20.4249 26.9066 21.119C28.8009 21.8128 38.6936 25.7505 40.5656 26.436C42.438 27.1224 42.5099 27.6874 40.5888 28.6888Z"/><path id="Vector_3" fill="#912626" d="M40.5895 26.4183C38.6683 27.4197 28.716 31.5118 26.5971 32.6167C24.4784 33.721 23.3014 33.7104 21.6276 32.9102C19.9537 32.1104 9.36273 27.8319 7.45495 26.9201C6.50134 26.4643 6 26.0801 6 25.7167V22.0775C6 22.0775 19.7881 19.0759 22.0142 18.2773C24.2401 17.4788 25.0124 17.4498 26.9067 18.1437C28.8011 18.8377 40.1278 20.8809 42 21.5667C42 21.5667 41.9992 24.8167 41.9992 25.1545C41.9994 25.5141 41.5674 25.9087 40.5895 26.4183Z"/><path id="Vector_4" fill="#C6302B" d="M40.5888 22.801C38.6677 23.8023 28.7157 27.8942 26.5969 28.9991C24.4783 30.1035 23.3012 30.0927 21.6275 29.2925C19.9537 28.4929 9.36307 24.2143 7.45535 23.3028C5.54763 22.3911 5.50755 21.7633 7.38166 21.0293C9.25563 20.2956 19.7881 16.1631 22.0144 15.3646C24.2402 14.5662 25.0124 14.5372 26.9066 15.2312C28.8009 15.925 38.6936 19.8624 40.5656 20.5482C42.438 21.2343 42.5099 21.7996 40.5888 22.8009V22.801Z"/><path id="Vector_5" fill="#912626" d="M40.5895 20.3122C38.6683 21.3136 28.716 25.4058 26.5971 26.5107C24.4784 27.6152 23.3014 27.6044 21.6276 26.8042C19.9537 26.0044 9.36273 21.7258 7.45495 20.8142C6.50134 20.3583 6 19.9739 6 19.6108V15.9715C6 15.9715 19.7881 12.97 22.0142 12.1715C24.2401 11.3729 25.0124 11.3441 26.9067 12.0379C28.8011 12.7319 40.1278 14.7752 42 15.461C42 15.461 41.9992 18.7109 41.9992 19.0486C41.9994 19.4079 41.5674 19.8025 40.5895 20.3122Z"/><path id="Vector_6" fill="#C6302B" d="M40.5888 16.6948C38.6677 17.6961 28.7157 21.7883 26.5969 22.8929C24.4783 23.9973 23.3012 23.9865 21.6275 23.1866C19.9538 22.3868 9.36307 18.1084 7.45535 17.1967C5.54763 16.285 5.50755 15.6572 7.38166 14.9232C9.25563 14.1895 19.7881 10.0573 22.0144 9.25858C24.2402 8.45997 25.0124 8.43129 26.9066 9.12527C28.8009 9.81925 38.6936 13.7566 40.5656 14.4424C42.438 15.1281 42.5099 15.6936 40.5888 16.6948Z"/><path id="Vector_7" fill="white" d="M28.399 13.1549L25.304 13.4763L24.6111 15.1434L23.4919 13.283L19.918 12.9618L22.5848 12.0001L21.7847 10.5239L24.2814 11.5003L26.6352 10.7297L25.999 12.2562L28.399 13.1549Z"/><path id="Vector_8" fill="white" d="M24.4264 21.2434L18.6499 18.8476L26.9273 17.5771L24.4264 21.2434Z"/><path id="Vector_9" fill="white" d="M16.4177 14.0816C18.8611 14.0816 20.8418 14.8495 20.8418 15.7965C20.8418 16.7437 18.8611 17.5114 16.4177 17.5114C13.9745 17.5114 11.9937 16.7437 11.9937 15.7965C11.9937 14.8495 13.9745 14.0816 16.4177 14.0816Z"/><path id="Vector_10" fill="#621B1C" d="M32.0571 13.6107L36.9559 15.5466L32.0613 17.4806L32.0571 13.6107Z"/><path id="Vector_11" fill="#9A2928" d="M26.6372 15.7545L32.0569 13.6107L32.0611 17.4806L31.5297 17.6885L26.6372 15.7545Z"/></g></g></svg>

<svg xmlns="http://www.w3.org/2000/svg" fill="none" aria-hidden="true" viewBox="0 0 48 48"><path fill="#912626" d="M40.59 32.306c-1.922 1.002-11.874 5.094-13.993 6.198-2.119 1.105-3.296 1.094-4.97.294-1.673-.8-12.264-5.078-14.172-5.99C6.501 32.352 6 31.968 6 31.604v-3.639s13.788-3.001 16.014-3.8c2.226-.799 2.998-.827 4.893-.133 1.894.694 13.22 2.737 15.093 3.423v3.587c0 .36-.433.755-1.41 1.264Z"/><path fill="#C6302B" d="M40.589 28.689c-1.921 1-11.873 5.093-13.992 6.197-2.119 1.105-3.296 1.094-4.97.294-1.673-.8-12.264-5.078-14.172-5.99-1.907-.911-1.947-1.539-.073-2.273 1.874-.734 12.406-4.866 14.632-5.665 2.226-.798 2.998-.827 4.893-.133 1.894.694 11.787 4.631 13.659 5.317 1.872.686 1.944 1.251.023 2.253Z"/><path fill="#912626" d="M40.59 26.418c-1.922 1.002-11.874 5.094-13.993 6.199-2.119 1.104-3.296 1.093-4.97.293-1.673-.8-12.264-5.078-14.172-5.99C6.501 26.464 6 26.08 6 25.717v-3.64s13.788-3.001 16.014-3.8c2.226-.798 2.998-.827 4.893-.133 1.894.694 13.22 2.737 15.093 3.423v3.587c0 .36-.433.755-1.41 1.264Z"/><path fill="#C6302B" d="M40.589 22.801c-1.921 1.001-11.873 5.093-13.992 6.198-2.119 1.105-3.296 1.094-4.97.294-1.673-.8-12.264-5.079-14.172-5.99-1.907-.912-1.947-1.54-.073-2.274 1.874-.733 12.406-4.866 14.632-5.664 2.226-.799 2.998-.828 4.893-.134 1.894.694 11.787 4.631 13.659 5.317 1.872.686 1.944 1.252.023 2.253Z"/><path fill="#912626" d="M40.59 20.312c-1.922 1.002-11.874 5.094-13.993 6.199-2.119 1.104-3.296 1.093-4.97.293-1.673-.8-12.264-5.078-14.172-5.99C6.501 20.358 6 19.974 6 19.611v-3.64s13.788-3.001 16.014-3.8c2.226-.798 2.998-.827 4.893-.133 1.894.694 13.22 2.737 15.093 3.423v3.588c0 .359-.433.753-1.41 1.263Z"/><path fill="#C6302B" d="M40.589 16.695c-1.921 1.001-11.873 5.093-13.992 6.198-2.119 1.104-3.296 1.093-4.97.294-1.673-.8-12.264-5.079-14.172-5.99-1.907-.912-1.947-1.54-.073-2.274 1.874-.733 12.406-4.866 14.632-5.664 2.226-.799 2.998-.828 4.893-.134 1.894.694 11.787 4.632 13.659 5.317 1.872.686 1.944 1.252.023 2.253Z"/><path fill="#fff" d="m28.4 13.155-3.096.321-.693 1.667-1.119-1.86-3.574-.321L22.585 12l-.8-1.476 2.497.976 2.353-.77L26 12.256l2.4.899Zm-3.974 8.088-5.776-2.395 8.277-1.27-2.5 3.665Zm-8.008-7.161c2.443 0 4.424.768 4.424 1.714 0 .948-1.98 1.715-4.424 1.715-2.443 0-4.424-.767-4.424-1.714s1.98-1.715 4.424-1.715Z"/><path fill="#621B1C" d="m32.057 13.61 4.899 1.937-4.895 1.934-.004-3.87Z"/><path fill="#9A2928" d="m26.637 15.755 5.42-2.144.004 3.87-.531.207-4.893-1.933Z"/></svg>
